src/icons/svg/role.svg

<?xml version="1.0" standalone="no"?><!DOCTYPE svg PUBLIC "-//W3C//DTD SVG 1.1//EN" "http://www.w3.org/Graphics/SVG/1.1/DTD/svg11.dtd"><svg t="1563248386884" class="icon" viewBox="0 0 1024 1024" version="1.1" xmlns="http://www.w3.org/2000/svg" p-id="3643" xmlns:xlink="http://www.w3.org/1999/xlink" width="128" height="128"><defs><style type="text/css"></style></defs><path d="M234.666667 469.333333a21.333333 21.333333 0 0 0-21.333334 21.333334v341.333333a21.333333 21.333333 0 0 0 21.333334 21.333333h554.666666a21.333333 21.333333 0 0 0 21.333334-21.333333v-341.333333a21.333333 21.333333 0 0 0-21.333334-21.333334h-554.666666z m0-42.666666h554.666666a64 64 0 0 1 64 64v341.333333a64 64 0 0 1-64 64h-554.666666A64 64 0 0 1 170.666667 832v-341.333333A64 64 0 0 1 234.666667 426.666667z" fill="#333333" p-id="3644"></path><path d="M405.333333 682.666667l213.333334 0 0 42.666666-213.333334 0 0-42.666666Z" fill="#333333" p-id="3645"></path><path d="M704 448h-42.666667v-128a149.333333 149.333333 0 0 0-298.666666 0v128h-42.666667v-128a192 192 0 0 1 384 0v128z" fill="#333333" p-id="3646"></path></svg>

<svg class="icon" viewBox="0 0 1024 1024" xmlns="http://www.w3.org/2000/svg" width="128" height="128"><defs><style/></defs><path d="M234.667 469.333a21.333 21.333 0 0 0-21.334 21.334V832a21.333 21.333 0 0 0 21.334 21.333h554.666A21.333 21.333 0 0 0 810.667 832V490.667a21.333 21.333 0 0 0-21.334-21.334H234.667zm0-42.666h554.666a64 64 0 0 1 64 64V832a64 64 0 0 1-64 64H234.667a64 64 0 0 1-64-64V490.667a64 64 0 0 1 64-64z"/><path d="M405.333 682.667h213.334v42.666H405.333v-42.666zM704 448h-42.667V320a149.333 149.333 0 0 0-298.666 0v128H320V320a192 192 0 0 1 384 0v128z"/></svg>
